X:77
T: Seprik az erdei utat
K: F
M: 2/4
L: 1/8
fddc | fddc | 
ddfd | dccB | 
cBdc | cBGF | 
cBdc | cBGG | 

